X: 33308
T: Quaker's Wife, The
R: jig
M: 6/8
K: Gmajor
|:D|GAB D2E|GAB AGE|GAB D2E|GAG GED|
GAB D2E|GAB d2e|dBG AGA|BGG G2:|
|:B|dBB dBB|dBB A2B|dBB dBA|GAB GED|
dBB dBe|dBd g2e|dBG AGA|BGG G2:|

